X:1
T: The Beggar's Wedding
C:Bruce Shawyer
R:Jig
Q:180
K:D
M:6/8
L:1/16
|:A2|d4A2 f2e2d2|e2c2A2 g2f2e2|d4A2 f2e2d2|e6 a6|
d4A2 f2e2d2|e2c2A2 g2f2e2|d2e2f2 e2f2e2|d6 d4:|
|:a2|a4a2 a2g2f2|g4g2 g2f2e2|d4d2 d2e2f2|e6 a4a2|
a4a2 a2g2f2|g4g2 g2f2e2|d2e2f2 e2f2e2|d6 d4:|
